src/icons/io.github.kolunmi.Bazaar.gnome.svg

<svg width="128" height="128" viewBox="0 0 128 128" fill="none" xmlns="http://www.w3.org/2000/svg">
<g clip-path="url(#clip0_7_44)">
<path d="M100 11.9999H28C19.1634 11.9999 12 19.1633 12 27.9999V100C12 108.837 19.1634 116 28 116H100C108.837 116 116 108.837 116 100V27.9999C116 19.1633 108.837 11.9999 100 11.9999Z" fill="white"/>
<path d="M89.2362 24C72.5903 24 69.4677 47.7044 78.832 47.7044C88.1949 47.7044 105.883 24 89.2362 24Z" fill="black"/>
<path d="M61.596 44.7671C66.582 45.0715 72.0524 25.7433 62.6813 26.9589C53.3137 28.1745 56.6081 44.4627 61.596 44.7671Z" fill="black"/>
<path d="M38.7456 56.7773C42.2917 55.2166 39.2023 39.952 33.1724 44.115C27.1451 48.2787 35.1995 58.3372 38.7456 56.7773Z" fill="black"/>
<path d="M48.7371 48.7874C52.9585 47.9269 53.1899 30.6146 45.6619 33.7203C38.1326 36.8267 44.5191 49.6493 48.7371 48.7874Z" fill="black"/>
<path d="M70.7803 87.5298C71.5293 93.2488 66.584 96.0731 61.7408 92.3863C46.3229 80.6501 87.2686 74.7952 84.5696 58.7614C82.3293 45.4524 41.4858 49.5498 36.8348 70.3744C33.6866 84.4593 49.7939 104 66.6009 104C74.8691 104 84.4059 96.5358 86.1901 87.08C87.5528 79.8694 70.1551 82.7587 70.7803 87.5298Z" fill="black"/>
</g>
<defs>
<clipPath id="clip0_7_44">
<rect width="128" height="128" fill="white"/>
</clipPath>
</defs>
</svg>

<svg xmlns="http://www.w3.org/2000/svg" width="128" height="128" fill="none" viewBox="0 0 128 128"><g clip-path="url(#a)"><path fill="#fff" d="M100 12H28c-8.837 0-16 7.163-16 16v72c0 8.837 7.163 16 16 16h72c8.837 0 16-7.163 16-16V28c0-8.837-7.163-16-16-16"/><path fill="#000" d="M89.236 24C72.59 24 69.468 47.704 78.832 47.704 88.195 47.704 105.883 24 89.236 24m-27.64 20.767c4.986.304 10.456-19.024 1.085-17.808-9.367 1.215-6.073 17.504-1.085 17.808m-22.85 12.01c3.546-1.56.456-16.825-5.574-12.662-6.027 4.164 2.028 14.222 5.574 12.662m9.991-7.99c4.221-.86 4.453-18.172-3.075-15.067-7.53 3.107-1.143 15.93 3.075 15.067M70.78 87.53c.75 5.719-4.196 8.543-9.04 4.856-15.416-11.736 25.53-17.59 22.83-33.625-2.24-13.309-43.084-9.211-47.735 11.613C33.687 84.46 49.794 104 66.6 104c8.268 0 17.805-7.464 19.59-16.92 1.362-7.21-16.036-4.321-15.41.45"/></g><defs><clipPath id="a"><path fill="#fff" d="M0 0h128v128H0z"/></clipPath></defs></svg>
